packages/icon/src/svg/external-link.icon.svg

<svg width="24" height="24" viewBox="0 0 24 24" fill="none" xmlns="http://www.w3.org/2000/svg">
<path d="M14.5 3C14.2239 3 14 3.22386 14 3.5V4.5C14 4.77614 14.2239 5 14.5 5H17.59L9.11355 13.4764C8.91829 13.6717 8.91829 13.9883 9.11355 14.1836L9.81645 14.8864C10.0117 15.0817 10.3283 15.0817 10.5236 14.8864L19 6.41V9.5C19 9.77614 19.2239 10 19.5 10H20.5C20.7761 10 21 9.77614 21 9.5V3.5C21 3.22386 20.7761 3 20.5 3H14.5ZM18 18H6V6H9.5C9.77614 6 10 5.77614 10 5.5V4.5C10 4.22386 9.77614 4 9.5 4H5C4.44772 4 4 4.44772 4 5V19C4 19.5523 4.44772 20 5 20H19C19.5523 20 20 19.5523 20 19V14.5C20 14.2239 19.7761 14 19.5 14H18.5C18.2239 14 18 14.2239 18 14.5V18Z" fill="white"/>
</svg>

<svg aria-label="external link icon" viewBox="0 0 24 24"><path d="M14.5 3a.5.5 0 00-.5.5v1a.5.5 0 00.5.5h3.09l-8.476 8.476a.5.5 0 000 .708l.702.702a.5.5 0 00.708 0L19 6.41V9.5a.5.5 0 00.5.5h1a.5.5 0 00.5-.5v-6a.5.5 0 00-.5-.5h-6zM18 18H6V6h3.5a.5.5 0 00.5-.5v-1a.5.5 0 00-.5-.5H5a1 1 0 00-1 1v14a1 1 0 001 1h14a1 1 0 001-1v-4.5a.5.5 0 00-.5-.5h-1a.5.5 0 00-.5.5V18z"/></svg>
